src/images_karasa_jaga_svg/cmd/32/symbolshapes.smiley.svg

<svg height="32" viewBox="0 0 32 32" width="32" xmlns="http://www.w3.org/2000/svg" xmlns:xlink="http://www.w3.org/1999/xlink"><linearGradient id="a" gradientUnits="userSpaceOnUse" x1="65.878098" x2="64" y1="127.03596" y2="8"><stop offset="0" stop-color="#fff"/><stop offset=".53340602" stop-color="#fff"/><stop offset=".83333331" stop-color="#f1f1f1"/><stop offset=".89999998" stop-color="#eaeaea"/><stop offset="1" stop-color="#dfdfdf"/></linearGradient><linearGradient id="b" gradientUnits="userSpaceOnUse" x1="65.878098" x2="68.000008" y1="127.03596" y2="12"><stop offset="0" stop-color="#7c9fcf"/><stop offset=".5" stop-color="#7c9ece"/><stop offset="1" stop-color="#7b9dcf"/></linearGradient><g transform="scale(.25)"><path d="m64 4c-15.707959.0000123-31.318577 6.467014-42.425781 17.574219-11.107205 11.107204-17.5742067 26.717822-17.574219 42.425781.0000123 15.707959 6.467014 31.318578 17.574219 42.42578 11.107204 11.10721 26.717822 17.57421 42.425781 17.57422 15.707959-.00001 31.318578-6.46701 42.42578-17.57422 11.10721-11.107202 17.57421-26.717821 17.57422-42.42578-.00001-15.707959-6.46701-31.318577-17.57422-42.425781-11.107202-11.107205-26.717821-17.5742067-42.42578-17.574219zm-19.222656 36.306641a4.7428226 10.816517 0 0 1 4.742187 10.816406 4.7428226 10.816517 0 0 1 -4.742187 10.816406 4.7428226 10.816517 0 0 1 -4.742188-10.816406 4.7428226 10.816517 0 0 1 4.742188-10.816406zm38.68164 0a4.7428226 10.816517 0 0 1 4.744141 10.816406 4.7428226 10.816517 0 0 1 -4.744141 10.816406 4.7428226 10.816517 0 0 1 -4.742187-10.816406 4.7428226 10.816517 0 0 1 4.742187-10.816406z" fill="url(#b)"/><path d="m64 8a56.000044 56.000044 0 0 0 -56 56 56.000044 56.000044 0 0 0 56 56 56.000044 56.000044 0 0 0 56-56 56.000044 56.000044 0 0 0 -56-56zm-19.319453 29.260292a7.7573985 13.613444 0 0 1 7.757968 13.614177 7.7573985 13.613444 0 0 1 -7.757968 13.612291 7.7573985 13.613444 0 0 1 -7.757968-13.612291 7.7573985 13.613444 0 0 1 7.757968-13.614177zm38.638906 0a7.7573985 13.613444 0 0 1 7.757968 13.614177 7.7573985 13.613444 0 0 1 -7.757968 13.612291 7.7573985 13.613444 0 0 1 -7.757967-13.612291 7.7573985 13.613444 0 0 1 7.757967-13.614177zm-54.573682 42.195271c34.098069 26.481837 52.404671 13.485002 70.516007 0l.965972 1.931944c-19.396532 21.387543-41.249768 31.719913-72.447951 0z" fill="url(#a)"/></g></svg>

<?xml version="1.0" encoding="UTF-8" standalone="no"?>
<!-- Created with Inkscape (http://www.inkscape.org/) -->

<svg
   xmlns:dc="http://purl.org/dc/elements/1.1/"
   xmlns:cc="http://creativecommons.org/ns#"
   xmlns:rdf="http://www.w3.org/1999/02/22-rdf-syntax-ns#"
   xmlns:svg="http://www.w3.org/2000/svg"
   xmlns="http://www.w3.org/2000/svg"
   xmlns:xlink="http://www.w3.org/1999/xlink"
   xmlns:sodipodi="http://sodipodi.sourceforge.net/DTD/sodipodi-0.dtd"
   xmlns:inkscape="http://www.inkscape.org/namespaces/inkscape"
   version="1.1"
   id="svg2"
   width="128"
   height="128"
   viewBox="0 0 128 128"
   sodipodi:docname="symbolshapes.smiley.svg"
   inkscape:export-filename="/home/rizmut/Dokumen/Rizmut/Github/libreoffice-style-karasa-jaga/build/images_karasa_jaga/cmd/32/symbolshapes.smiley.png"
   inkscape:export-xdpi="24"
   inkscape:export-ydpi="24"
   inkscape:version="0.92.3 (unknown)">
  <metadata
     id="metadata8">
    <rdf:RDF>
      <cc:Work
         rdf:about="">
        <dc:format>image/svg+xml</dc:format>
        <dc:type
           rdf:resource="http://purl.org/dc/dcmitype/StillImage" />
        <dc:title></dc:title>
      </cc:Work>
    </rdf:RDF>
  </metadata>
  <defs
     id="defs6">
    <linearGradient
       inkscape:collect="always"
       id="linearGradient825">
      <stop
         style="stop-color:#f9f9fa;stop-opacity:1;"
         offset="0"
         id="stop821" />
      <stop
         style="stop-color:#f9f9fa;stop-opacity:0;"
         offset="1"
         id="stop823" />
    </linearGradient>
    <linearGradient
       inkscape:collect="always"
       xlink:href="#linearGradient825"
       id="linearGradient827"
       x1="42.276669"
       y1="50.867565"
       x2="-13.469376"
       y2="104.97279"
       gradientUnits="userSpaceOnUse"
       gradientTransform="matrix(1.2100292,0,0,1.2100292,-38.717738,-45.51934)" />
    <linearGradient
       id="linearGradient3369">
      <stop
         id="stop3372"
         offset="0"
         style="stop-color:#ffffff;stop-opacity:1;" />
      <stop
         style="stop-color:#ffffff;stop-opacity:1;"
         offset="0.53340602"
         id="stop3374" />
      <stop
         style="stop-color:#f1f1f1;stop-opacity:1;"
         offset="0.83333331"
         id="stop3376" />
      <stop
         id="stop3378"
         offset="0.89999998"
         style="stop-color:#eaeaea;stop-opacity:1;" />
      <stop
         id="stop3384"
         offset="1"
         style="stop-color:#dfdfdf;stop-opacity:1;" />
    </linearGradient>
    <linearGradient
       id="linearGradient7422">
      <stop
         style="stop-color:#7c9fcf;stop-opacity:1"
         offset="0"
         id="stop7424" />
      <stop
         id="stop5348"
         offset="0.5"
         style="stop-color:#7c9ece;stop-opacity:1" />
      <stop
         id="stop7426"
         offset="1"
         style="stop-color:#7b9dcf;stop-opacity:1" />
    </linearGradient>
    <linearGradient
       inkscape:collect="always"
       xlink:href="#linearGradient3369"
       id="linearGradient1426"
       gradientUnits="userSpaceOnUse"
       gradientTransform="matrix(0.96597265,0,0,0.96597265,2.1777508,2.1777508)"
       x1="65.944252"
       y1="129.25647"
       x2="64"
       y2="6.0273438" />
    <linearGradient
       inkscape:collect="always"
       xlink:href="#linearGradient7422"
       id="linearGradient1430"
       gradientUnits="userSpaceOnUse"
       gradientTransform="matrix(0.96597265,0,0,0.96597265,2.1777508,2.1777508)"
       x1="65.944252"
       y1="129.25647"
       x2="68.140907"
       y2="10.168248" />
  </defs>
  <sodipodi:namedview
     pagecolor="#ffffff"
     bordercolor="#666666"
     borderopacity="1"
     objecttolerance="10"
     gridtolerance="10"
     guidetolerance="10"
     inkscape:pageopacity="0"
     inkscape:pageshadow="2"
     inkscape:window-width="1366"
     inkscape:window-height="706"
     id="namedview4"
     showgrid="true"
     inkscape:snap-page="true"
     inkscape:snap-global="false"
     inkscape:zoom="1.7320077"
     inkscape:cx="108.60147"
     inkscape:cy="43.071069"
     inkscape:window-x="0"
     inkscape:window-y="0"
     inkscape:window-maximized="1"
     inkscape:current-layer="svg2"
     inkscape:snap-smooth-nodes="true">
    <inkscape:grid
       type="xygrid"
       id="grid837"
       spacingx="4"
       spacingy="4"
       empspacing="2" />
  </sodipodi:namedview>
  <path
     style="opacity:1;fill:url(#linearGradient1430);fill-opacity:1;stroke:none;stroke-width:3.86389065;stroke-linecap:square;stroke-linejoin:bevel;stroke-miterlimit:4;stroke-dasharray:none;stroke-dashoffset:0;stroke-opacity:0.72941176"
     d="M 64 4 C 48.292041 4.0000123 32.681423 10.467014 21.574219 21.574219 C 10.467014 32.681423 4.0000123 48.292041 4 64 C 4.0000123 79.707959 10.467014 95.318578 21.574219 106.42578 C 32.681423 117.53299 48.292041 123.99999 64 124 C 79.707959 123.99999 95.318578 117.53299 106.42578 106.42578 C 117.53299 95.318578 123.99999 79.707959 124 64 C 123.99999 48.292041 117.53299 32.681423 106.42578 21.574219 C 95.318578 10.467014 79.707959 4.0000123 64 4 z M 44.777344 40.306641 A 4.7428226 10.816517 0 0 1 49.519531 51.123047 A 4.7428226 10.816517 0 0 1 44.777344 61.939453 A 4.7428226 10.816517 0 0 1 40.035156 51.123047 A 4.7428226 10.816517 0 0 1 44.777344 40.306641 z M 83.458984 40.306641 A 4.7428226 10.816517 0 0 1 88.203125 51.123047 A 4.7428226 10.816517 0 0 1 83.458984 61.939453 A 4.7428226 10.816517 0 0 1 78.716797 51.123047 A 4.7428226 10.816517 0 0 1 83.458984 40.306641 z "
     id="path1428" />
  <rect
     y="25.282259"
     x="-77.435478"
     height="77.435478"
     width="77.435478"
     id="rect819"
     style="opacity:1;fill:url(#linearGradient827);fill-opacity:1;stroke:none;stroke-width:3.79921031;stroke-linecap:round;stroke-linejoin:bevel;stroke-miterlimit:4;stroke-dasharray:none;stroke-dashoffset:0;stroke-opacity:0.73039216" />
  <path
     inkscape:connector-curvature="0"
     id="path1424"
     d="M 64,8 A 56.000044,56.000044 0 0 0 8,64 56.000044,56.000044 0 0 0 64,120 56.000044,56.000044 0 0 0 120,64 56.000044,56.000044 0 0 0 64,8 Z M 44.680547,37.260292 A 7.7573985,13.613444 0 0 1 52.438515,50.874469 7.7573985,13.613444 0 0 1 44.680547,64.48676 7.7573985,13.613444 0 0 1 36.922579,50.874469 7.7573985,13.613444 0 0 1 44.680547,37.260292 Z m 38.638906,0 A 7.7573985,13.613444 0 0 1 91.077421,50.874469 7.7573985,13.613444 0 0 1 83.319453,64.48676 7.7573985,13.613444 0 0 1 75.561486,50.874469 7.7573985,13.613444 0 0 1 83.319453,37.260292 Z M 28.745771,79.455563 c 34.098069,26.481837 52.404671,13.485002 70.516007,0 l 0.965972,1.931944 c -19.396532,21.387543 -41.249768,31.719913 -72.447951,0 z"
     style="opacity:1;fill:url(#linearGradient1426);fill-opacity:1;stroke:none;stroke-width:3.86389065;stroke-linecap:square;stroke-linejoin:bevel;stroke-miterlimit:4;stroke-dasharray:none;stroke-dashoffset:0;stroke-opacity:0.72941176" />
</svg>
